X:1
T:Svite Tikhii
T:Svite Tikhiy
T:Mykola Leontovych
C:Mykola Leontovych
%%score [ 1 2 3 4 ]
L:1/8
Q:1/4=100
M:2/4
K:C
V:1 treble nm="Soprano"
V:2 treble nm="Alto"
V:3 treble-8 nm="Tenor"
V:4 bass nm="Bass"
V:1
!mp!"^Allegro Moderato" e2 A2 | !>!^G2 A B | c2 A2 | !>!B2 A ^G |!<(! A A B c!<)! | d2 (cB) | %6
w: Svi- te|ti- khij svja-|ti- ja|sla- vi Bez-|smert- no- go Ot-|sja Ne- *|
!>(! A2 A2!>)! | ^G2 z!pp! G |!<(! A2 A A!<)! |!>(! !>!B2 B2!>)! |!pp! A2!<(! c B | A4!<)! | %12
w: bes- no-|go, Svja-|to- go, Bla-|zjen- no-|go I- i-|su-|
!p!!>(! ^G2 G2 | A2!>)! z A | !>!=G2 G G |!<(! G G c B | c2 c B | A2 (dc) | B2 c e!<)! | %19
w: se Khris-|te: pri-|sjed- sji na|za- khid son- tsia,|vi- div- sji|svit ve- *|tsjir- nij, po-|
!>(! !>!g3 f!>)! | e3!f! c |!>(! (e3 d) | c2 B A | d c B A!>)! | (!>!d2 c2) | A2 z A | ^G2 G G | %27
w: em Ot-|tsia i|Si- *|na i Svja-|to- go Du- kha,|Bo- *|ga. Do-|sto- in e-|
 B3 B | A2 A A | c2 !>!c2 | !>!d2 !>!c2 |!>(! B B c c | e2"^rit." d2!>)! | !fermata!c2- c z | %34
w: si i|vsi vre- me-|na pit|bi- ti|gla- si pre- po-|dob- ni-|mi, _|
!mp!"^a tempo" e2 A2 | ^G2 A B | c2!p! A2 | B4- | !fermata!B2 z2 | c2 d2 | e2 e2 | (d4- | d2 cB | %43
w: Si- ne|Bo- zhij, Zji-|vo- tvor-|nij,|_|tim zje|svit Tja|sla-||
 c2 B2) | A4 |] %45
w: |vit.|
V:2
!mp! A2 E2 | !>!E2 E E | E2 D2 | !>!F2 E E |!<(! E E A A!<)! | A2 (A^G) |!>(! A2 D2!>)! | %7
w: Svi- te|ti- khij svja-|ti- ja|sla- vi Bez-|smert- no- go Ot-|sja Ne- *|bes- no-|
 E2 z!pp! E |!<(! E2 E E!<)! |!>(! !>!F2 E2!>)! |!pp! E2!<(! A ^G | (A2 F2)!<)! |!p!!>(! E2 E2 | %13
w: go, Svja-|to- go, Bla-|zjen- no-|go I- i-|su- *|se Khris-|
 E2!>)! z E | !>!G2 F F |!<(! E E E F | G2 G G | F2 A2 | (GF) E G!<)! |!>(! !>!G3 G!>)! | G3!f! A | %21
w: te: pri-|sjed- sji na|za- khid son- tsia,|vi- div- sji|svit ve-|tsjir- * nij, po-|em Ot-|tsia i|
!>(! E4 | E2 E E | D E F F!>)! | (!>!E2 D2) | C2 z E | E2 E E | ^G3 G | A2 E E | =G2 !>!G2 | %30
w: Si-|na i Svja-|to- go Du- kha,|Bo- *|ga. Do-|sto- in e-|si i|vsi vre- me-|na pit|
 !>!G2 !>!G2 |!>(! G G G A | B2"^rit." B2!>)! | !fermata!G2- G z |!mp!"^a tempo" A2 E2 | E2 E E | %36
w: bi- ti|gla- si pre- po-|dob- ni-|mi, _|Si- ne|Bo- zhij, Zji-|
 E2!p! E2 | ^G4- | !fermata!G2 z2 | A2 B2 | A2 G2 | (F2 A2- | A4- | A2 ^G2) | A4 |] %45
w: vo- tvor-|nij,|_|tim zje|svit Tja|sla- *|||vit.|
V:3
!mp! c2 c2 | !>!B2 A ^G | A2 A2 | !>!d2 c B |!<(! c c d e!<)! | f2 (ed) |!>(! c2 B2!>)! | %7
w: Svi- te|ti- khij svja-|ti- ja|sla- vi Bez-|smert- no- go Ot-|sja Ne- *|bes- no-|
 B2 z!pp! B |!<(! c2 c c!<)! |!>(! !>!d2 d2!>)! |!pp! e2!<(! e e | (e2 dc)!<)! |!p!!>(! B2 B2 | %13
w: go, Svja-|to- go, Bla-|zjen- no-|go I- i-|su- * *|se Khris-|
 c2!>)! z c | !>!d2 d d |!<(! c c c c | c2 c c | c2 f2 | d2 c c!<)! |!>(! !>!e3 d!>)! | c3 z | %21
w: te: pri-|sjed- sji na|za- khid son- tsia,|vi- div- sji|svit ve-|tsjir- nij, po-|em Ot-|tsia|
!f!!>(! (c3 B) | A2 B B | A A B A!>)! | !>!^G4 | A2 z c | B2 B B | e3 e | e2 c c | c2 !>!c2 | %30
w: Si- *|na i Svja-|to- go Du- kha,|Bo-|ga. Do-|sto- in e-|si i|vsi vre- me-|na pit|
 !>!B2 !>!c2 |!>(! f f e e | g2"^rit." f2!>)! | !fermata!e2- e z |!mp!"^a tempo" c2 c2 | B2 A ^G | %36
w: bi- ti|gla- si pre- po-|dob- ni-|mi, _|Si- ne|Bo- zhij, Zji-|
 A2!p! e2 | e4- | !fermata!e2 z2 | e2 f2 | e2 e2 | (A2 f2 | e4- | e2 d2) | c4 |] %45
w: vo- tvor-|nij,|_|tim zje|svit Tja|sla- *|||vit.|
V:4
!mp! A,,2 (A,,C,) | (!>!E,D,) C, B,, | A,,2 (F,E,) | !>!D,2 E, E, |!<(! A, G, F, E,!<)! | D,2 E,2 | %6
w: Svi- te _|ti- * khij svja-|ti- ja _|sla- vi Bez-|smert- no- go Ot-|sja Ne-|
!>(! F,2 F,2!>)! | E,2 z!pp! E, |!<(! A,2 A, A,!<)! |!>(! !>!G,2 ^G,2!>)! |!pp! A,2!<(! A,, B,, | %11
w: bes- no-|go, Svja-|to- go, Bla-|zjen- no-|go I- i-|
 (C,2 D,2)!<)! |!p!!>(! E,2 E,2 | A,,2!>)! z A,, | !>!B,,2 B,, B,, |!<(! C, C, C, D, | E,2 E, E, | %17
w: su- *|se Khris-|te: pri-|sjed- sji na|za- khid son- tsia,|vi- div- sji|
 F,2 D,2 | G,2 C, z!<)! |!>(! z [G,,G,] [A,,A,] [B,,B,]!>)! | C,3 z | z!f!!>(! (E, ^F,^G,) | %22
w: svit ve-|tsjir- nij,|po- em Ot-|tsia|Si- * *|
 A,2 ^G, A, | F, E, D, D,!>)! | !>!E,4 | A,,2 z A,, | E,2 E, E, | D,3 D, | (C,A,,) A, A, | %29
w: na i Svja-|to- go Du- kha,|Bo-|ga. Do-|sto- in e-|si i|vsi _ vre- me-|
 E,2 !>!E,2 | !>!F,2 !>!E,2 |!>(! D, D, C, A,, | G,,2"^rit." G,,2!>)! | !fermata!C,2- C, z | %34
w: na pit|bi- ti|gla- si pre- po-|dob- ni-|mi, _|
!mp!"^a tempo" A,,2 (A,,C,) | (E,D,) C, B,, | A,,2!p! C,2 | E,4- | !fermata!E,2 z2 | A,,2 G,,2 | %40
w: Si- ne _|Bo- * zhij, Zji-|vo- tvor-|nij,|_|tim zje|
 C,2 ^C,2 | (D,2 =C,B,, | E,4- | [E,,E,]4) | A,,4 |] %45
w: svit Tja|sla- * *|||vit.|

